X:1
T: The Mavis Sweetly Sings
N:
C:Purcell
S:
A:
O:
R:
M:3/4
K:C
I:speed 150
%W: A1
% voice 1 (1 lines, 32 notes)
K:C
M:3/4
L:1/16
B4 |G4 c4 g4 |e3 f e3 f g4 |c3 d B3 c d4 |e12 |A6 B2 A4 |d4 G8 |d6 e2 d4 |g4 c4 e2 d2 |B8 A2 G2 |G8 B4 |
%W: A2
% voice 1 (1 lines, 31 notes)
G4 c4 g4 |e3 f e3 f g4 |c3 d B3 c d4 |e12 |A6 B2 A4 |d4 G8 |d6 e2 d4 |g4 c4 e2 d2 |B8 A2 G2 |G8 d4 |
%W: B
% voice 1 (1 lines, 34 notes)
d4 A4 d4 |B8 e4 |e6 f2 d4 |e4 B4 e2 d2 |c4 f2 e2 f2 d2 |B4 e2 d2 e2 c2 |A4 d2 c2 d2 B2 |^G8 e4 |c8 B2 A2 |A8 e4 |
%W: C
% voice 1 (1 lines, 14 notes)
f8 A4 |B4 G4 d4 |g4 c4 B4 |c4 G4 e4 |c8 B4 |c8 ||
